hero/outline/cursor-arrow-ripple.svg

<svg width="24" height="24" viewBox="0 0 24 24" fill="none" xmlns="http://www.w3.org/2000/svg">
<path d="M15.0423 21.6718L13.6835 16.6007M13.6835 16.6007L11.1741 18.826L11.7425 9.35623L16.9697 17.2731L13.6835 16.6007ZM6.16637 16.3336C2.94454 13.1118 2.94454 7.88819 6.16637 4.66637C9.38819 1.44454 14.6118 1.44454 17.8336 4.66637C19.4445 6.27724 20.25 8.38854 20.25 10.4999M8.28769 14.2123C6.23744 12.1621 6.23744 8.83794 8.28769 6.78769C10.3379 4.73744 13.6621 4.73744 15.7123 6.78769C16.7374 7.8128 17.25 9.15637 17.25 10.4999" stroke="#0F172A" stroke-width="1.5" stroke-linecap="round" stroke-linejoin="round"/>
</svg>

<svg viewBox="0 0 24 24" xmlns="http://www.w3.org/2000/svg"><path fill="none" stroke="#000" stroke-linecap="round" stroke-linejoin="round" stroke-width="1.5" d="M15.042 21.672l-1.36-5.08m0 0l-2.51 2.22 .56-9.47 5.22 7.917 -3.29-.68Zm-7.52-.27v0c-3.23-3.23-3.23-8.45 0-11.67 3.22-3.23 8.44-3.23 11.66 0 1.54 1.54 2.41 3.64 2.41 5.83m-11.97 3.71H8.26c-2.06-2.06-2.06-5.38-.01-7.43 2.05-2.06 5.37-2.06 7.42-.01 .98.98 1.53 2.32 1.53 3.71"/></svg>
